X: 37
M:6/8
L:1/8
K:D
uA|\
|:f|\
a2f d2e | f2g agf | g2e cde | e2f gfe |
a2f d2e | f2g agf | g2e cde | (d3 d2)|]
f|\
a2f d2e | f2g agf | g2e cde | e2f gfe |
fed gfe | agf bag | fed cde | (d3 d2)"_D.C."|]


